X:637
%%etbk:tnset id:380,pos:1,rep:3x,ant:
%%etbk:wsite https://thesession.org/tunes/397
%%etbk:pldat 2016-05-29T15:44,2015-06-11T19:10,2015-04-06T11:18
T: The Trip To Sligo
Z: Piano Box Version by Martin Fleischmann
H: Created 2015-03-27 /  Last Modified 2015-06-11
R: jig
M: 6/8
L: 1/8
K: Emin
|:!1!E2!5!c !4!B!2!G!1!E | !1!D2!5!d !3!A!2!F!1!D | !1!E3  !5!BA!2!F | !3!GFE !5!e2 !4!f |
!5!gfe d!1!c!3!B | !2!A/B/A.G FE!1!D | !2!EF!1!G AB!4!c | !3!BGF E2 :|
!2!B|: !5!e!1!B!2!e !4!g!5!be | !1!dcd !3!faf | !2!eBe !4!gbe | !3!faf !4!gb!2!e |
!3!faf gfe | !1!d!3!c!4!d !1!A!3!F!1!D | !2!EF!1!G AB!4!c | BGF E2 :|


